X: 305651
M: 6/8
L: 1/8
K: C
E/F/ |\
fGf fGf | eGe eGe | ded dcB | AGG GGG |\
fGf fGf | eGe eGe | gfe dcB | g3 "^D.C."g2 |]
d |\
efe dcB | Ace E2e | efe dcB | (A4 ^c) |\
ded cBA | GBd G2G | ded cBA | G3- "^D.C."G2 |]



